X: 1
T: Cock Up Your Beaver
M: 6/8
L: 1/8
R: Jig
N: The English language has changed since the 18th century.  The title
N: originally meant to position one's beaver top-hat at a rakish angle.
S: Howe - 1000 Jigs and Reels (c.1867)
Z: AK/Fiddler's Companion
K: G
g \
| d2G B>AG | A>BA c2e | d2G (B>AB) | Ggd B>cd | c/B/c/d/e/f/ gdB |
| A3 c2 e | d2c BcA | Ggd B2 :: d | Ggd (B/c/d)B | AaA c2A | Ggd (B/c/d)B |
| Ggd B/A/B/c/d/B/ | c/B/c/d/e/f/ g/f/e/d/c/B/ | AaA c>de/f/ | g(a/g/).f/.e/ d(B/c/.d).B | Ggd B2 :|
